X:40
T:Fraher's
Z: id:dc-jig-34
M:6/8
L:1/8
K:D Mixolydian
EG|A3 GEA|D3 GED|A3 GEA|DED DEG|!
A3 GEA|D3 GED|A3 GEA|DED D:|!
EG|ABc d2A|d2A AGE|GAB c3|BGE EDE|!
Ad^c def|dcA AGE|A3 GEA|DED D:|!

